; generated by Slic3r 0.9.3 on 2012-10-30 at 19:15:18

; layer_height = 0.3
; perimeters = 3
; solid_layers = 3
; fill_density = 0.4
; perimeter_speed = 35
; infill_speed = 75
; travel_speed = 120
; scale = 1
; nozzle_diameter = 0.5
; filament_diameter = 3
; extrusion_multiplier = 1
; single wall width = 0.70mm

M107
M190 S115 ; wait for bed temperature to be reached
M104 S230 ; set temperature
G28 ; home all axes
M109 S230 ; wait for temperature to be reached
G90 ; use absolute coordinates
G21 ; set units to millimeters
G92 E0
M82 ; use absolute distances for extrusion
G1 F1200.000 E-3.00000
G1 Z1.000 F7200.000
G92 E0
G1 X42.676 Y57.826
G1 Z0.400
G1 F1200.000 E3.00000
G1 X44.676 Y54.916 F630.000 E3.09808
G1 X45.056 Y54.466 E3.11444
G1 X47.736 Y51.976 E3.21606
G1 X48.376 Y51.496 E3.23828
G1 X51.306 Y49.736 E3.33323
G1 X51.756 Y49.506 E3.34727
G1 X55.266 Y48.196 E3.45133
G1 X55.946 Y48.006 E3.47095
G1 X59.666 Y47.356 E3.57585
G1 X60.376 Y47.316 E3.59560
G1 X124.586 Y47.336 E5.37921
G1 X125.056 Y47.386 E5.39234
G1 X128.546 Y48.006 E5.49080
G1 X129.016 Y48.126 E5.50428
G1 X132.506 Y49.406 E5.60754
G1 X132.736 Y49.506 E5.61450
G1 X133.176 Y49.726 E5.62817
G1 X136.126 Y51.496 E5.72373
G1 X136.776 Y51.986 E5.74634
G1 X139.236 Y54.256 E5.83932
G1 X139.816 Y54.916 E5.86373
G1 X141.686 Y57.616 E5.95496
G1 X141.996 Y58.156 E5.97226
G1 X143.306 Y61.446 E6.07062
G1 X143.406 Y61.756 E6.07967
G1 X143.486 Y62.076 E6.08883
G1 X143.916 Y65.276 E6.17852
G1 X143.976 Y66.106 E6.20164
G1 X143.976 Y83.066 E6.67275
G1 X143.656 Y86.466 E6.76761
G1 X143.546 Y87.026 E6.78346
G1 X142.556 Y90.146 E6.87439
G1 X142.216 Y90.906 E6.89752
G1 X128.826 Y114.116 E7.64183
G1 X128.816 Y114.126 E7.64223
G1 X127.456 Y116.466 E7.71741
G1 X126.976 Y117.126 E7.74008
G1 X124.976 Y119.356 E7.82328
G1 X124.556 Y119.756 E7.83940
G1 X122.126 Y121.536 E7.92307
G1 X106.866 Y130.396 E8.41322
G1 X106.106 Y130.776 E8.43683
G1 X103.436 Y131.886 E8.51715
G1 X102.476 Y132.156 E8.54485
G1 X99.586 Y132.586 E8.62601
G1 X98.606 Y132.666 E8.65332
G1 X37.956 Y132.666 E10.33804
G1 X34.436 Y132.386 E10.43613
G1 X34.146 Y132.346 E10.44426
G1 X33.276 Y132.136 E10.46912
G1 X30.126 Y131.116 E10.56110
G1 X29.886 Y131.016 E10.56832
G1 X26.416 Y129.116 E10.67821
G1 X23.306 Y126.566 E10.78993
G1 X22.806 Y126.066 E10.80957
G1 X20.676 Y123.536 E10.90144
G1 X20.026 Y122.596 E10.93318
G1 X18.246 Y119.506 E11.03224
G1 X18.146 Y119.296 E11.03870
G1 X16.776 Y115.516 E11.15038
G1 X16.616 Y114.816 E11.17033
G1 X16.036 Y111.356 E11.26778
G1 X16.016 Y111.096 E11.27502
G1 X16.086 Y107.416 E11.37726
G1 X16.136 Y106.876 E11.39233
G1 X16.176 Y106.616 E11.39964
G1 X16.916 Y103.356 E11.49250
G1 X17.086 Y102.796 E11.50875
G1 X18.716 Y99.326 E11.61525
G1 X42.327 Y58.429 E12.92700
G1 F1200.000 E9.92700
G1 Z1.000 F7200.000
G92 E0
G1 X116.486 Y62.838
G1 Z0.400
G1 F1200.000 E3.00000
G1 X117.089 Y60.194 F630.000 E3.07533
G1 X118.780 Y58.074 E3.15065
G1 X121.223 Y56.897 E3.22598
G1 X123.935 Y56.897 E3.30131
G1 X126.378 Y58.074 E3.37663
G1 X128.069 Y60.194 E3.45196
G1 X128.672 Y62.838 E3.52729
G1 X128.069 Y65.481 E3.60261
G1 X126.378 Y67.602 E3.67794
G1 X123.935 Y68.778 E3.75327
G1 X121.223 Y68.778 E3.82859
G1 X118.780 Y67.602 E3.90392
G1 X117.089 Y65.481 E3.97925
G1 X116.641 Y63.517 E4.03522
G1 X117.179 Y62.838 F7200.000
G1 X117.714 Y60.495 F630.000 E4.10198
G1 X119.212 Y58.616 E4.16874
G1 X121.377 Y57.573 E4.23550
G1 X123.781 Y57.573 E4.30226
G1 X125.946 Y58.616 E4.36902
G1 X127.445 Y60.495 E4.43578
G1 X127.979 Y62.838 E4.50254
G1 X127.445 Y65.181 E4.56930
G1 X125.946 Y67.060 E4.63606
G1 X123.781 Y68.103 E4.70282
G1 X121.377 Y68.103 E4.76958
G1 X119.212 Y67.060 E4.83634
G1 X117.714 Y65.181 E4.90310
G1 X117.334 Y63.517 E4.95051
G1 X117.872 Y62.838 F7200.000
G1 X118.338 Y60.795 F630.000 E5.00870
G1 X119.644 Y59.157 E5.06689
G1 X121.532 Y58.248 E5.12509
G1 X123.627 Y58.248 E5.18328
G1 X125.514 Y59.157 E5.24147
G1 X126.820 Y60.795 E5.29967
G1 X127.286 Y62.838 E5.35786
G1 X126.820 Y64.880 E5.41605
G1 X125.514 Y66.518 E5.47425
G1 X123.627 Y67.427 E5.53244
G1 X121.532 Y67.427 E5.59063
G1 X119.644 Y66.518 E5.64883
G1 X118.338 Y64.880 E5.70702
G1 X118.027 Y63.517 E5.74586
G1 F1200.000 E2.74586
G1 Z1.000 F7200.000
G92 E0
G1 X118.103 Y82.957
G1 Z0.400
G1 F1200.000 E3.00000
G1 X118.832 Y84.069 F630.000 E3.03692
G1 X117.816 Y85.828 E3.09335
G1 X124.616 Y89.754 E3.31147
G1 X125.666 Y87.935 E3.36980
G1 X128.540 Y89.595 E3.46199
G1 X128.540 Y89.595 E3.46199
G1 X129.778 Y90.309 E3.50169
G1 X120.904 Y105.679 E3.99468
G1 X116.792 Y103.305 E4.12657
G1 X117.942 Y101.314 E4.19046
G1 X111.142 Y97.388 E4.40857
G1 X110.077 Y99.232 E4.46772
G1 X108.759 Y99.164 E4.50438
G1 X105.233 Y91.305 E4.74366
G1 X112.417 Y90.483 E4.94451
G1 X109.483 Y83.944 E5.14359
G1 X117.410 Y83.036 E5.36522
G1 X117.766 Y83.676 F7200.000
G1 X118.039 Y84.091 F630.000 E5.37903
G1 X116.893 Y86.075 E5.44266
G1 X124.863 Y90.677 E5.69831
G1 X125.913 Y88.858 E5.75664
G1 X128.855 Y90.557 E5.85100
G1 X120.657 Y104.757 E6.30646
G1 X117.715 Y103.058 E6.40082
G1 X118.865 Y101.066 E6.46470
G1 X110.895 Y96.465 E6.72035
G1 X109.699 Y98.536 E6.78678
G1 X109.207 Y98.511 E6.80048
G1 X106.228 Y91.871 E7.00262
G1 X113.412 Y91.049 E7.20347
G1 X110.478 Y84.510 E7.40255
G1 X117.074 Y83.755 E7.58697
G1 F1200.000 E4.58697
G1 Z1.000 F7200.000
G92 E0
G1 X97.796 Y109.356
G1 Z0.400
G1 F1200.000 E3.00000
G1 X99.152 Y111.704 F630.000 E3.07533
G1 X99.354 Y114.408 E3.15065
G1 X98.364 Y116.933 E3.22598
G1 X96.376 Y118.777 E3.30131
G1 X93.785 Y119.576 E3.37663
G1 X91.103 Y119.172 E3.45196
G1 X88.862 Y117.645 E3.52729
G1 X87.507 Y115.296 E3.60261
G1 X87.304 Y112.592 E3.67794
G1 X88.295 Y110.068 E3.75327
G1 X90.283 Y108.223 E3.82859
G1 X92.874 Y107.424 E3.90392
G1 X95.555 Y107.828 E3.97925
G1 X97.220 Y108.963 E4.03522
G1 X97.288 Y109.827 F7200.000
G1 X98.490 Y111.908 F630.000 E4.10198
G1 X98.669 Y114.305 E4.16874
G1 X97.791 Y116.542 E4.23550
G1 X96.029 Y118.177 E4.30226
G1 X93.733 Y118.885 E4.36902
G1 X91.356 Y118.527 E4.43578
G1 X89.370 Y117.173 E4.50254
G1 X88.169 Y115.092 E4.56930
G1 X87.989 Y112.695 E4.63606
G1 X88.867 Y110.458 E4.70282
G1 X90.629 Y108.823 E4.76958
G1 X92.926 Y108.115 E4.83634
G1 X95.302 Y108.473 E4.90310
G1 X96.712 Y109.435 E4.95051
G1 X96.780 Y110.298 F7200.000
G1 X97.827 Y112.113 F630.000 E5.00870
G1 X97.984 Y114.202 E5.06689
G1 X97.219 Y116.152 E5.12509
G1 X95.683 Y117.577 E5.18328
G1 X93.681 Y118.194 E5.24147
G1 X91.609 Y117.882 E5.29967
G1 X89.878 Y116.702 E5.35786
G1 X88.831 Y114.888 E5.41605
G1 X88.674 Y112.799 E5.47425
G1 X89.440 Y110.848 E5.53244
G1 X90.976 Y109.423 E5.59063
G1 X92.977 Y108.806 E5.64882
G1 X95.049 Y109.118 E5.70702
G1 X96.204 Y109.906 E5.74586
G1 F1200.000 E2.74586
G1 Z1.000 F7200.000
G92 E0
G1 X84.702 Y110.631
G1 Z0.400
G1 F1200.000 E3.00000
G1 X84.751 Y107.988 F630.000 E3.07343
G1 X85.300 Y105.541 E3.14311
G1 X86.308 Y103.394 E3.20897
G1 X87.717 Y101.630 E3.27168
G1 X89.549 Y100.238 E3.33560
G1 X103.224 Y92.343 E3.77422
G1 X104.393 Y91.083 E3.82197
G1 X108.312 Y99.818 E4.08792
G1 X110.456 Y99.927 E4.14754
G1 X111.389 Y98.310 E4.19940
G1 X117.019 Y101.561 E4.37998
G1 X115.869 Y103.553 E4.44387
G1 X121.151 Y106.602 E4.61329
G1 X123.773 Y102.061 E4.75897
G1 X124.304 Y102.322 E4.77540
G1 X123.755 Y103.648 E4.81525
G1 X122.923 Y106.285 E4.89207
G1 X122.720 Y107.199 E4.91808
G1 X122.720 Y107.199 E4.91808
G1 X122.574 Y107.860 E4.93687
G1 X121.806 Y110.224 E5.00593
G1 X120.730 Y112.087 E5.06569
G1 X119.291 Y113.687 E5.12546
G1 X117.481 Y115.001 E5.18759
G1 X102.924 Y123.405 E5.65448
G1 X100.803 Y124.296 E5.71840
G1 X98.571 Y124.633 E5.78111
G1 X96.208 Y124.433 E5.84697
G1 X93.814 Y123.685 E5.91664
G1 X91.500 Y122.406 E5.99008
G1 X89.381 Y120.644 E6.06662
G1 X87.563 Y118.477 E6.14520
G1 X86.136 Y116.005 E6.22449
G1 X85.168 Y113.347 E6.30307
G1 X84.820 Y111.318 E6.36026
G1 F1200.000 E3.36026
G1 Z1.000 F7200.000
G92 E0
G1 X108.825 Y83.339
G1 Z0.400
G1 F1200.000 E3.00000
G1 X109.204 Y81.852 F630.000 E3.04262
G1 X109.204 Y66.195 E3.47754
G1 X109.493 Y63.912 E3.54146
G1 X110.317 Y61.810 E3.60417
G1 X111.672 Y59.864 E3.67003
G1 X113.517 Y58.165 E3.73970
G1 X115.781 Y56.801 E3.81313
G1 X118.366 Y55.847 E3.88968
G1 X121.152 Y55.356 E3.96826
G1 X124.006 Y55.356 E4.04754
G1 X126.792 Y55.847 E4.12612
G1 X129.377 Y56.801 E4.20267
G1 X131.642 Y58.165 E4.27610
G1 X133.487 Y59.864 E4.34577
G1 X134.842 Y61.810 E4.41163
G1 X135.665 Y63.912 E4.47434
G1 X135.955 Y66.195 E4.53826
G1 X135.955 Y82.999 E5.00503
G1 X135.721 Y85.227 E5.06729
G1 X135.056 Y87.273 E5.12704
G1 X133.980 Y89.136 E5.18680
G1 X132.312 Y90.989 E5.25604
G1 X131.128 Y92.075 E5.30067
G1 X129.260 Y94.113 E5.37747
G1 X128.385 Y95.253 E5.41740
G1 X127.893 Y94.925 E5.43382
G1 X130.701 Y90.062 E5.58980
G1 X129.216 Y89.205 E5.63742
G1 X129.216 Y89.205 E5.63742
G1 X125.419 Y87.012 E5.75922
G1 X124.369 Y88.831 E5.81755
G1 X118.739 Y85.581 E5.99813
G1 X119.625 Y84.046 E6.04735
G1 X118.439 Y82.239 E6.10740
G1 X109.518 Y83.260 E6.35684
G1 X108.809 Y84.091 F7200.000
G1 X111.423 Y89.916 F630.000 E6.53419
G1 X105.110 Y90.639 E6.71069
G1 X104.976 Y90.404 E6.71820
G1 X106.073 Y88.955 E6.76869
G1 X107.197 Y87.116 E6.82854
G1 X107.197 Y87.116 E6.82854
G1 X107.200 Y87.110 E6.82875
G1 X107.909 Y85.640 E6.87406
G1 X107.909 Y85.640 E6.87406
G1 X108.140 Y85.161 E6.88886
G1 X108.384 Y84.489 E6.90870
G1 X107.517 Y84.898 F7200.000
G1 X108.233 Y82.928 F630.000 E6.96693
G1 X108.528 Y81.767 E7.00019
G1 X108.528 Y66.152 E7.43394
G1 X108.833 Y63.744 E7.50138
G1 X109.717 Y61.489 E7.56864
G1 X111.159 Y59.418 E7.63877
G1 X113.109 Y57.622 E7.71240
G1 X115.487 Y56.189 E7.78951
G1 X118.189 Y55.192 E7.86951
G1 X121.093 Y54.680 E7.95142
G1 X124.065 Y54.680 E8.03399
G1 X126.969 Y55.192 E8.11589
G1 X129.671 Y56.189 E8.19590
G1 X132.049 Y57.622 E8.27301
G1 X133.999 Y59.418 E8.34664
G1 X135.442 Y61.489 E8.41677
G1 X136.325 Y63.744 E8.48403
G1 X136.630 Y66.152 E8.55147
G1 X136.630 Y83.034 E9.02040
G1 X136.385 Y85.369 E9.08561
G1 X135.677 Y87.550 E9.14931
G1 X134.529 Y89.535 E9.21302
G1 X132.793 Y91.465 E9.28513
G1 X131.606 Y92.553 E9.32984
G1 X129.778 Y94.548 E9.40500
G1 X128.130 Y96.696 E9.48021
G1 X126.676 Y98.978 E9.55539
G1 X125.426 Y101.378 E9.63055
G1 X124.390 Y103.879 E9.70574
G1 X123.576 Y106.460 E9.78093
G1 X123.562 Y106.524 E9.78273
G1 X123.562 Y106.524 E9.78273
G1 X123.227 Y108.038 E9.82580
G1 X122.427 Y110.501 E9.89774
G1 X121.279 Y112.486 E9.96144
G1 X119.745 Y114.192 E10.02515
G1 X117.849 Y115.568 E10.09025
G1 X103.225 Y124.011 E10.55930
G1 X100.987 Y124.951 E10.62674
G1 X98.593 Y125.313 E10.69400
G1 X96.077 Y125.100 E10.76413
G1 X93.547 Y124.309 E10.83776
G1 X91.118 Y122.966 E10.91487
G1 X88.903 Y121.125 E10.99488
G1 X87.008 Y118.866 E11.07678
G1 X85.521 Y116.292 E11.15935
G1 X84.513 Y113.521 E11.24126
G1 X84.026 Y110.682 E11.32126
G1 X84.077 Y107.907 E11.39837
G1 X84.657 Y105.320 E11.47200
G1 X85.730 Y103.035 E11.54213
G1 X87.241 Y101.143 E11.60939
G1 X89.168 Y99.679 E11.67660
G1 X89.168 Y99.678 E11.67664
G1 X102.446 Y92.012 E12.10254
G1 X102.446 Y92.012 E12.10254
G1 X102.798 Y91.809 E12.11382
G1 X104.249 Y90.246 E12.17306
G1 X105.514 Y88.574 E12.23130
G1 X106.606 Y86.787 E12.28945
G1 X106.606 Y86.787 E12.28945
G1 X106.606 Y86.786 E12.28950
G1 X107.214 Y85.525 E12.32837
G1 X106.876 Y84.671 F7200.000
G1 X106.894 Y84.635 F630.000 E12.32949
G1 X107.586 Y82.728 E12.38585
G1 X107.853 Y81.683 E12.41582
G1 X107.853 Y66.110 E12.84840
G1 X108.174 Y63.576 E12.91936
G1 X109.117 Y61.169 E12.99116
G1 X110.647 Y58.971 E13.06556
G1 X112.702 Y57.079 E13.14315
G1 X115.193 Y55.578 E13.22394
G1 X118.012 Y54.537 E13.30741
G1 X121.034 Y54.004 E13.39264
G1 X124.124 Y54.004 E13.47849
G1 X127.146 Y54.537 E13.56372
G1 X129.965 Y55.578 E13.64719
G1 X132.456 Y57.079 E13.72798
G1 X134.511 Y58.971 E13.80557
G1 X136.042 Y61.169 E13.87997
G1 X136.985 Y63.576 E13.95177
G1 X137.306 Y66.110 E14.02273
G1 X137.306 Y83.069 E14.49383
G1 X137.050 Y85.510 E14.56199
G1 X136.297 Y87.826 E14.62964
G1 X135.079 Y89.935 E14.69729
G1 X133.273 Y91.941 E14.77227
G1 X132.085 Y93.031 E14.81707
G1 X130.296 Y94.982 E14.89059
G1 X128.684 Y97.084 E14.96417
G1 X127.261 Y99.316 E15.03770
G1 X126.039 Y101.664 E15.11123
G1 X125.026 Y104.110 E15.18478
G1 X124.229 Y106.635 E15.25832
G1 X123.879 Y108.216 E15.30328
G1 X123.047 Y110.777 E15.37809
G1 X121.829 Y112.886 E15.44574
G1 X120.200 Y114.696 E15.51340
G1 X118.217 Y116.136 E15.58145
G1 X117.812 Y116.370 E15.59445
G1 X117.812 Y116.370 E15.59445
G1 X103.633 Y124.556 E16.04923
G1 X103.633 Y124.556 E16.04923
G1 X103.526 Y124.618 E16.05267
G1 X101.171 Y125.607 E16.12363
G1 X98.615 Y125.993 E16.19543
G1 X95.946 Y125.767 E16.26983
G1 X93.280 Y124.934 E16.34742
G1 X90.735 Y123.527 E16.42821
G1 X88.424 Y121.606 E16.51167
G1 X86.452 Y119.255 E16.59691
G1 X84.907 Y116.578 E16.68276
G1 X83.857 Y113.695 E16.76799
G1 X83.349 Y110.734 E16.85146
G1 X83.403 Y107.826 E16.93224
G1 X84.014 Y105.100 E17.00983
G1 X85.153 Y102.676 E17.08423
G1 X86.765 Y100.656 E17.15604
G1 X88.799 Y99.110 E17.22699
G1 X102.372 Y91.274 E17.66233
G1 X103.730 Y89.811 E17.71780
G1 X104.955 Y88.193 E17.77417
G1 X105.779 Y86.845 E17.81805
G1 X105.779 Y86.845 E17.81805
G1 X106.012 Y86.463 E17.83050
G1 X106.574 Y85.299 E17.86638
G1 F1200.000 E14.86638
G1 Z1.000 F7200.000
G92 E0
G1 X115.639 Y90.949
G1 Z0.400
G1 F1200.000 E3.00000
G1 X121.269 Y94.200 F630.000 E3.18058
G1 X120.069 Y96.279 E3.24727
G1 X114.439 Y93.028 E3.42785
G1 X115.291 Y91.553 E3.47519
G1 X114.481 Y91.604 F7200.000
G1 X115.392 Y90.026 F630.000 E3.52580
G1 X122.192 Y93.952 E3.74392
G1 X120.316 Y97.202 E3.84814
G1 X113.516 Y93.276 E4.06625
G1 X114.133 Y92.208 E4.10051
G1 X113.623 Y91.739 F7200.000
G1 X115.145 Y89.103 F630.000 E4.18504
G1 X123.115 Y93.705 E4.44069
G1 X120.563 Y98.125 E4.58245
G1 X112.593 Y93.523 E4.83810
G1 X113.275 Y92.342 E4.87596
G1 F1200.000 E1.87596
G1 Z1.000 F7200.000
G92 E0
G1 X119.852 Y99.531
G1 Z0.400
G1 F1200.000 E3.00000
G1 X120.347 Y98.701 F630.000 E3.02682
G1 X119.852 Y99.531 F7200.000
G1 X119.383 Y100.378 F630.000 E3.05374
G1 X119.368 Y100.386 E3.05422
G1 X119.256 Y100.589 E3.06065
G1 F1200.000 E0.06065
G1 Z1.000 F7200.000
G92 E0
G1 X123.502 Y93.226
G1 Z0.400
G1 F1200.000 E3.00000
G1 X123.618 Y93.004 F630.000 E3.00696
G1 X123.782 Y92.770 E3.01491
G1 X124.118 Y92.115 E3.03535
G1 X124.647 Y91.245 E3.06364
G1 F1200.000 E0.06364
G1 Z1.000 F7200.000
G92 E0
G1 X115.604 Y101.315
G1 Z0.400
G1 F1200.000 E3.00000
G1 X116.589 Y102.300 F1350.000 E3.03922
G1 X116.234 Y102.916 F7200.000
G1 X113.310 Y99.991 F1350.000 E3.15561
G1 F1200.000 E0.15561
G1 Z1.000 F7200.000
G92 E0
G1 X111.124 Y98.774
G1 Z0.400
G1 F1200.000 E3.00000
G1 X115.880 Y103.530 F1350.000 E3.18929
G1 X115.524 Y104.144 F7200.000
G1 X110.769 Y99.390 F1350.000 E3.37856
G1 X110.415 Y100.004 F7200.000
G1 X121.375 Y110.965 F1350.000 E3.81483
G1 X121.020 Y111.580 F7200.000
G1 X109.530 Y100.090 F1350.000 E4.27218
G1 X108.509 Y100.037 F7200.000
G1 X120.663 Y112.191 F1350.000 E4.75599
G1 X120.204 Y112.702 F7200.000
G1 X107.487 Y99.985 F1350.000 E5.26217
G1 X107.480 Y99.008 E5.28967
G1 X101.698 Y93.226 E5.51980
G1 X102.313 Y92.872 F7200.000
G1 X106.691 Y97.250 F1350.000 E5.69406
G1 X105.903 Y95.492 E5.74828
G1 X102.927 Y92.517 E5.86673
G1 X103.449 Y92.070 F7200.000
G1 X105.114 Y93.734 F1350.000 E5.93299
G1 F1200.000 E2.93299
G1 Z1.000 F7200.000
G92 E0
G1 X101.083 Y93.581
G1 Z0.400
G1 F1200.000 E3.00000
G1 X108.268 Y100.767 F1350.000 E3.28600
G1 F1200.000 E0.28600
G1 Z1.000 F7200.000
G92 E0
G1 X115.006 Y103.627
G1 Z0.400
G1 F1200.000 E3.00000
G1 X121.713 Y110.333 F1350.000 E3.26695
