; generated by Slic3r 0.9.3 on 2012-11-07 at 05:59:05

; layer_height = 0.3
; perimeters = 3
; solid_layers = 3
; fill_density = 0.3
; perimeter_speed = 50
; infill_speed = 50
; travel_speed = 100
; scale = 1
; nozzle_diameter = 0.5
; filament_diameter = 3
; extrusion_multiplier = 1
; single wall width = 0.70mm

M107
M190 S115 ; wait for bed temperature to be reached
M104 S230 ; set temperature
G28 ; home all axes
M109 S230 ; wait for temperature to be reached
G90 ; use absolute coordinates
G21 ; set units to millimeters
G92 E0
M82 ; use absolute distances for extrusion
G1 F1200.000 E-3.00000
G1 Z1.000 F6000.000
G92 E0
G1 X49.682 Y59.615
G1 Z0.400
G1 F1200.000 E3.00000
G1 X50.322 Y58.985 F900.000 E3.02495
G1 X54.002 Y55.845 E3.15932
G1 X54.712 Y55.315 E3.18393
G1 X58.782 Y52.685 E3.31854
G1 X59.562 Y52.255 E3.34328
G1 X63.942 Y50.195 E3.47773
G1 X64.772 Y49.865 E3.50254
G1 X69.392 Y48.405 E3.63713
G1 X70.262 Y48.195 E3.66199
G1 X75.032 Y47.365 E3.79648
G1 X75.912 Y47.275 E3.82106
G1 X80.752 Y47.085 E3.95560
G1 X81.642 Y47.105 E3.98033
G1 X86.462 Y47.565 E4.11483
G1 X87.332 Y47.715 E4.13935
G1 X92.052 Y48.805 E4.27391
G1 X92.922 Y49.065 E4.29914
G1 X97.442 Y50.785 E4.43348
G1 X98.242 Y51.155 E4.45796
G1 X102.502 Y53.455 E4.59244
G1 X103.262 Y53.925 E4.61726
G1 X107.182 Y56.775 E4.75189
G1 X107.872 Y57.355 E4.77692
G1 X111.372 Y60.705 E4.91150
G1 X111.972 Y61.365 E4.93628
G1 X114.992 Y65.155 E5.07089
G1 X115.492 Y65.885 E5.09547
G1 X117.982 Y70.035 E5.22991
G1 X118.392 Y70.835 E5.25488
G1 X120.302 Y75.285 E5.38939
G1 X120.602 Y76.105 E5.41365
G1 X121.912 Y80.765 E5.54811
G1 X122.092 Y81.655 E5.57333
G1 X122.762 Y86.455 E5.70796
G1 X122.832 Y87.335 E5.73248
G1 X122.862 Y92.175 E5.86693
G1 X122.802 Y93.075 E5.89198
G1 X122.182 Y97.875 E6.02642
G1 X122.012 Y98.755 E6.05132
G1 X120.752 Y103.435 E6.18595
G1 X120.462 Y104.255 E6.21011
G1 X118.602 Y108.725 E6.34460
G1 X118.202 Y109.545 E6.36994
G1 X115.752 Y113.725 E6.50453
G1 X115.252 Y114.455 E6.52911
G1 X112.272 Y118.275 E6.66369
G1 X111.672 Y118.945 E6.68867
G1 X108.212 Y122.325 E6.82303
G1 X107.552 Y122.895 E6.84725
G1 X103.672 Y125.795 E6.98181
G1 X102.912 Y126.285 E7.00693
G1 X98.672 Y128.635 E7.14158
G1 X97.862 Y129.015 E7.16644
G1 X93.352 Y130.775 E7.30092
G1 X92.512 Y131.035 E7.32534
G1 X87.812 Y132.185 E7.45975
G1 X86.922 Y132.345 E7.48487
G1 X82.102 Y132.855 E7.61950
G1 X81.212 Y132.885 E7.64424
G1 X76.372 Y132.745 E7.77874
G1 X75.502 Y132.665 E7.80301
G1 X70.722 Y131.895 E7.93750
G1 X69.822 Y131.685 E7.96317
G1 X65.192 Y130.265 E8.09769
G1 X64.382 Y129.955 E8.12179
G1 X59.982 Y127.945 E8.25616
G1 X59.192 Y127.525 E8.28101
G1 X55.092 Y124.945 E8.41557
G1 X54.372 Y124.415 E8.44041
G1 X50.652 Y121.305 E8.57509
G1 X50.002 Y120.685 E8.60005
G1 X46.742 Y117.115 E8.73434
G1 X46.192 Y116.425 E8.75885
G1 X43.422 Y112.445 E8.89354
G1 X42.952 Y111.665 E8.91884
G1 X40.752 Y107.355 E9.05326
G1 X40.412 Y106.555 E9.07740
G1 X38.792 Y101.985 E9.21209
G1 X38.552 Y101.115 E9.23716
G1 X37.562 Y96.375 E9.37166
G1 X37.432 Y95.495 E9.39637
G1 X37.082 Y90.665 E9.53089
G1 X37.082 Y89.775 E9.55562
G1 X37.382 Y84.945 E9.69004
G1 X37.492 Y84.055 E9.71495
G1 X38.432 Y79.305 E9.84945
G1 X38.662 Y78.455 E9.87391
G1 X40.222 Y73.875 E10.00831
G1 X40.562 Y73.055 E10.03297
G1 X42.722 Y68.715 E10.16763
G1 X43.182 Y67.935 E10.19279
G1 X45.902 Y63.925 E10.32738
G1 X46.452 Y63.225 E10.35211
G1 X49.217 Y60.134 E10.46732
G1 F1200.000 E7.46732
G1 Z1.000 F6000.000
G92 E0
G1 X58.022 Y71.084
G1 Z0.400
G1 F1200.000 E3.00000
G1 X60.092 Y69.862 F900.000 E3.06678
G1 X61.637 Y69.453 E3.11118
G1 X61.637 Y69.453 E3.11118
G1 X62.416 Y69.246 E3.13356
G1 X64.819 Y69.279 E3.20032
G1 X67.123 Y69.959 E3.26704
G1 X68.005 Y70.512 E3.29596
G1 X68.005 Y70.512 E3.29597
G1 X69.161 Y71.235 E3.33383
G1 X70.777 Y73.015 E3.40063
G1 X71.852 Y75.163 E3.46734
G1 X72.008 Y75.970 E3.49018
G1 X72.436 Y75.970 E3.50206
G1 X72.308 Y77.536 E3.54570
G1 X72.308 Y77.536 E3.54570
G1 X72.113 Y79.919 E3.61212
G1 X71.276 Y82.173 E3.67891
G1 X69.864 Y84.117 E3.74564
G1 X67.979 Y85.609 E3.81241
G1 X65.762 Y86.535 E3.87916
G1 X65.047 Y86.624 E3.89917
G1 X65.047 Y87.084 E3.91194
G1 X63.416 Y86.836 E3.95778
G1 X63.416 Y86.836 E3.95778
G1 X61.000 Y86.470 E4.02564
G1 X58.808 Y85.482 E4.09243
G1 X56.966 Y83.941 E4.15916
G1 X55.606 Y81.958 E4.22594
G1 X54.832 Y79.684 E4.29268
G1 X54.700 Y77.283 E4.35948
G1 X55.101 Y75.480 E4.41076
G1 X55.101 Y75.480 E4.41076
G1 X55.222 Y74.936 E4.42624
G1 X56.356 Y72.819 E4.49298
G1 X57.539 Y71.586 E4.54042
G1 X58.311 Y71.758 F6000.000
G1 X58.445 Y71.618 F900.000 E4.54580
G1 X60.355 Y70.491 E4.60742
G1 X62.313 Y69.973 E4.66367
G1 X62.313 Y69.973 E4.66367
G1 X62.499 Y69.923 E4.66903
G1 X64.717 Y69.953 E4.73063
G1 X65.790 Y70.270 E4.76173
G1 X65.790 Y70.270 E4.76173
G1 X66.842 Y70.581 E4.79220
G1 X68.103 Y71.370 E4.83350
G1 X68.103 Y71.370 E4.83350
G1 X68.723 Y71.758 E4.85383
G1 X70.215 Y73.401 E4.91547
G1 X71.207 Y75.382 E4.97702
G1 X71.451 Y76.646 E5.01277
G1 X71.703 Y76.646 E5.01976
G1 X71.628 Y77.566 E5.04541
G1 X71.628 Y77.566 E5.04541
G1 X71.447 Y79.771 E5.10687
G1 X70.675 Y81.851 E5.16850
G1 X69.372 Y83.645 E5.23008
G1 X67.633 Y85.021 E5.29169
G1 X65.587 Y85.876 E5.35328
G1 X64.372 Y86.026 E5.38730
G1 X64.372 Y86.298 E5.39484
G1 X63.413 Y86.153 E5.42177
G1 X63.413 Y86.153 E5.42177
G1 X61.193 Y85.816 E5.48413
G1 X59.171 Y84.905 E5.54576
G1 X57.471 Y83.482 E5.60733
G1 X56.216 Y81.652 E5.66896
G1 X55.501 Y79.554 E5.73054
G1 X55.380 Y77.338 E5.79217
G1 X55.861 Y75.173 E5.85377
G1 X56.908 Y73.219 E5.91535
G1 X57.828 Y72.261 E5.95227
G1 X58.798 Y72.226 F6000.000
G1 X58.868 Y72.153 F900.000 E5.95507
G1 X60.618 Y71.121 E6.01153
G1 X62.583 Y70.600 E6.06798
G1 X64.615 Y70.627 E6.12442
G1 X66.466 Y71.174 E6.17804
G1 X66.466 Y71.174 E6.17804
G1 X66.562 Y71.202 E6.18083
G1 X68.200 Y72.228 E6.23450
G1 X68.200 Y72.228 E6.23451
G1 X68.286 Y72.281 E6.23731
G1 X69.652 Y73.786 E6.29378
G1 X70.561 Y75.602 E6.35017
G1 X70.894 Y77.321 E6.39882
G1 X70.970 Y77.321 E6.40094
G1 X70.947 Y77.596 E6.40859
G1 X70.947 Y77.596 E6.40859
G1 X70.781 Y79.623 E6.46509
G1 X70.074 Y81.529 E6.52156
G1 X68.880 Y83.172 E6.57799
G1 X67.287 Y84.434 E6.63444
G1 X65.412 Y85.217 E6.69086
G1 X63.696 Y85.429 E6.73890
G1 X63.696 Y85.512 E6.74120
G1 X63.395 Y85.467 E6.74966
G1 X63.395 Y85.467 E6.74966
G1 X61.386 Y85.162 E6.80609
G1 X59.533 Y84.327 E6.86256
G1 X57.976 Y83.023 E6.91897
G1 X56.826 Y81.347 E6.97545
G1 X56.171 Y79.424 E7.03187
G1 X56.060 Y77.394 E7.08834
G1 X56.500 Y75.411 E7.14478
G1 X57.460 Y73.620 E7.20120
G1 X58.316 Y72.729 E7.23554
G1 F1200.000 E4.23554
G1 Z1.000 F6000.000
G92 E0
G1 X61.001 Y93.522
G1 Z0.400
G1 F1200.000 E3.00000
G1 X63.403 Y93.158 F900.000 E3.06751
G1 X63.403 Y93.158 E3.06751
G1 X65.047 Y92.908 E3.11370
G1 X65.047 Y93.368 E3.12647
G1 X65.763 Y93.457 E3.14650
G1 X67.979 Y94.385 E3.21325
G1 X69.863 Y95.875 E3.27996
G1 X70.178 Y96.307 E3.29482
G1 X70.178 Y96.307 E3.29482
G1 X71.276 Y97.819 E3.34672
G1 X72.113 Y100.073 E3.41351
G1 X72.308 Y102.456 E3.47992
G1 X72.308 Y102.456 E3.47992
G1 X72.436 Y104.022 E3.52357
G1 X72.008 Y104.022 E3.53545
G1 X71.852 Y104.829 E3.55828
G1 X70.777 Y106.977 E3.62499
G1 X69.161 Y108.757 E3.69180
G1 X68.005 Y109.480 E3.72966
G1 X68.005 Y109.480 E3.72966
G1 X67.123 Y110.033 E3.75859
G1 X64.819 Y110.713 E3.82532
G1 X62.416 Y110.746 E3.89207
G1 X60.092 Y110.130 E3.95884
G1 X58.022 Y108.908 E4.02563
G1 X56.356 Y107.173 E4.09242
G1 X55.222 Y105.056 E4.15916
G1 X55.101 Y104.512 E4.17465
G1 X55.101 Y104.512 E4.17465
G1 X54.700 Y102.709 E4.22593
G1 X54.832 Y100.308 E4.29272
G1 X55.606 Y98.034 E4.35946
G1 X57.264 Y95.617 E4.44089
G1 X57.365 Y95.718 E4.44485
G1 X58.023 Y95.167 E4.46866
G1 X58.023 Y95.167 E4.46866
G1 X58.809 Y94.510 E4.49713
G1 X60.365 Y93.808 E4.54456
G1 X61.017 Y94.255 F6000.000
G1 X61.194 Y94.176 F900.000 E4.54994
G1 X62.847 Y93.925 E4.59639
G1 X62.847 Y93.925 E4.59639
G1 X63.401 Y93.841 E4.61195
G1 X63.401 Y93.841 E4.61195
G1 X64.372 Y93.694 E4.63923
G1 X64.372 Y93.966 E4.64677
G1 X65.588 Y94.116 E4.68080
G1 X67.633 Y94.973 E4.74240
G1 X69.372 Y96.347 E4.80396
G1 X70.096 Y97.344 E4.83821
G1 X70.096 Y97.344 E4.83821
G1 X70.675 Y98.141 E4.86555
G1 X71.447 Y100.221 E4.92718
G1 X71.628 Y102.426 E4.98864
G1 X71.628 Y102.426 E4.98864
G1 X71.703 Y103.346 E5.01429
G1 X71.451 Y103.346 E5.02129
G1 X71.207 Y104.610 E5.05703
G1 X70.215 Y106.591 E5.11859
G1 X68.723 Y108.234 E5.18022
G1 X68.103 Y108.622 E5.20055
G1 X68.103 Y108.622 E5.20055
G1 X66.842 Y109.411 E5.24185
G1 X64.717 Y110.039 E5.30342
G1 X62.499 Y110.069 E5.36502
G1 X60.355 Y109.501 E5.42663
G1 X58.445 Y108.374 E5.48826
G1 X56.908 Y106.773 E5.54990
G1 X55.861 Y104.819 E5.61148
G1 X55.380 Y102.654 E5.67308
G1 X55.501 Y100.438 E5.73471
G1 X56.216 Y98.340 E5.79629
G1 X57.362 Y96.669 E5.85255
G1 X57.362 Y96.669 E5.85255
G1 X57.471 Y96.510 E5.85793
G1 X59.022 Y95.212 E5.91412
G1 X59.022 Y95.212 E5.91412
G1 X59.171 Y95.087 E5.91950
G1 X60.382 Y94.541 E5.95640
G1 X61.295 Y94.871 F6000.000
G1 X61.386 Y94.830 F900.000 E5.95919
G1 X63.397 Y94.525 E6.01569
G1 X63.397 Y94.525 E6.01569
G1 X63.696 Y94.480 E6.02408
G1 X63.696 Y94.563 E6.02638
G1 X65.412 Y94.775 E6.07442
G1 X67.287 Y95.560 E6.13086
G1 X68.880 Y96.819 E6.18727
G1 X70.015 Y98.381 E6.24091
G1 X70.015 Y98.381 E6.24091
G1 X70.074 Y98.463 E6.24371
G1 X70.781 Y100.369 E6.30017
G1 X70.947 Y102.396 E6.35668
G1 X70.947 Y102.396 E6.35668
G1 X70.970 Y102.671 E6.36433
G1 X70.894 Y102.671 E6.36645
G1 X70.561 Y104.390 E6.41509
G1 X69.652 Y106.206 E6.47149
G1 X68.286 Y107.711 E6.52796
G1 X68.200 Y107.764 E6.53076
G1 X68.200 Y107.764 E6.53076
G1 X66.562 Y108.790 E6.58443
G1 X64.615 Y109.365 E6.64085
G1 X62.583 Y109.392 E6.69729
G1 X60.618 Y108.871 E6.75374
G1 X58.868 Y107.839 E6.81020
G1 X57.460 Y106.372 E6.86669
G1 X56.500 Y104.581 E6.92311
G1 X56.060 Y102.598 E6.97955
G1 X56.171 Y100.568 E7.03602
G1 X56.826 Y98.645 E7.09244
G1 X57.976 Y96.969 E7.14892
G1 X59.533 Y95.665 E7.20533
G1 X60.659 Y95.157 E7.23965
G1 F1200.000 E4.23965
G1 Z1.000 F6000.000
G92 E0
G1 X78.893 Y104.608
G1 Z0.400
G1 F1200.000 E3.00000
G1 X79.456 Y103.953 F900.000 E3.02398
G1 X79.456 Y103.953 E3.02398
G1 X80.459 Y102.786 E3.06674
G1 X82.460 Y101.453 E3.13353
G1 X84.708 Y100.723 E3.19918
G1 X84.708 Y100.723 E3.19918
G1 X84.748 Y100.710 E3.20033
G1 X87.148 Y100.613 E3.26705
G1 X89.508 Y101.170 E3.33442
G1 X89.508 Y101.170 E3.33443
G1 X90.516 Y101.407 E3.36318
G1 X90.516 Y101.735 E3.37228
G1 X91.590 Y102.329 E3.40637
G1 X93.300 Y104.017 E3.47311
G1 X94.494 Y106.105 E3.53992
G1 X95.077 Y108.436 E3.60667
G1 X95.013 Y110.837 E3.67338
G1 X94.300 Y113.133 E3.74017
G1 X92.997 Y115.151 E3.80691
G1 X91.197 Y116.743 E3.87365
G1 X89.969 Y117.337 E3.91154
G1 X89.969 Y117.337 E3.91155
G1 X89.032 Y117.791 E3.94046
G1 X86.667 Y118.215 E4.00721
G1 X86.382 Y118.188 E4.01516
G1 X86.382 Y118.188 E4.01516
G1 X84.274 Y117.987 E4.07399
G1 X83.574 Y117.716 E4.09482
G1 X83.574 Y117.716 E4.09482
G1 X82.031 Y117.120 E4.14077
G1 X80.509 Y115.981 E4.19358
G1 X80.338 Y115.981 E4.19832
G1 X78.643 Y113.777 E4.27557
G1 X78.114 Y112.465 E4.31484
G1 X77.844 Y112.465 E4.32234
G1 X77.483 Y109.156 E4.41483
G1 X77.782 Y107.350 E4.46565
G1 X77.782 Y107.350 E4.46565
G1 X77.875 Y106.785 E4.48157
G1 X78.598 Y105.239 E4.52897
G1 X79.384 Y105.153 F6000.000
G1 X79.466 Y104.978 F900.000 E4.53434
G1 X80.377 Y103.919 E4.57315
G1 X80.377 Y103.919 E4.57315
G1 X80.911 Y103.297 E4.59593
G1 X82.758 Y102.067 E4.65756
G1 X84.868 Y101.382 E4.71919
G1 X87.083 Y101.292 E4.78076
G1 X89.253 Y101.804 E4.84271
G1 X89.253 Y101.804 E4.84271
G1 X89.841 Y101.942 E4.85947
G1 X89.841 Y102.133 E4.86477
G1 X91.181 Y102.875 E4.90734
G1 X92.759 Y104.433 E4.96892
G1 X93.861 Y106.359 E5.03057
G1 X94.399 Y108.510 E5.09217
G1 X94.340 Y110.726 E5.15372
G1 X93.682 Y112.845 E5.21535
G1 X92.480 Y114.707 E5.27693
G1 X90.819 Y116.175 E5.33852
G1 X90.645 Y116.260 E5.34389
G1 X90.645 Y116.260 E5.34389
G1 X88.821 Y117.142 E5.40016
G1 X86.639 Y117.534 E5.46176
G1 X84.430 Y117.323 E5.52337
G1 X84.250 Y117.253 E5.52876
G1 X84.250 Y117.253 E5.52876
G1 X82.361 Y116.523 E5.58499
G1 X80.734 Y115.305 E5.64146
G1 X80.671 Y115.305 E5.64320
G1 X79.235 Y113.438 E5.70864
G1 X78.570 Y111.790 E5.75800
G1 X78.450 Y111.790 E5.76134
G1 X78.165 Y109.174 E5.83443
G1 X78.527 Y106.987 E5.89601
G1 X79.089 Y105.784 E5.93289
G1 X79.996 Y105.439 F6000.000
G1 X80.039 Y105.348 F900.000 E5.93568
G1 X81.297 Y103.884 E5.98932
G1 X81.297 Y103.884 E5.98932
G1 X81.363 Y103.808 E5.99212
G1 X83.055 Y102.680 E6.04858
G1 X84.988 Y102.053 E6.10505
G1 X87.018 Y101.971 E6.16147
G1 X88.997 Y102.437 E6.21795
G1 X88.997 Y102.437 E6.21795
G1 X89.165 Y102.477 E6.22275
G1 X89.165 Y102.531 E6.22426
G1 X90.773 Y103.421 E6.27530
G1 X92.219 Y104.849 E6.33174
G1 X93.228 Y106.614 E6.38822
G1 X93.722 Y108.585 E6.44466
G1 X93.667 Y110.614 E6.50106
G1 X93.065 Y112.556 E6.55753
G1 X91.963 Y114.262 E6.61395
G1 X90.441 Y115.608 E6.67037
G1 X88.611 Y116.493 E6.72685
G1 X86.610 Y116.852 E6.78330
G1 X84.587 Y116.659 E6.83976
G1 X82.692 Y115.927 E6.89621
G1 X82.266 Y115.608 E6.91096
G1 X82.266 Y115.608 E6.91096
G1 X81.065 Y114.709 E6.95265
G1 X81.004 Y114.630 E6.95544
G1 X81.004 Y114.630 E6.95544
G1 X79.827 Y113.100 E7.00906
G1 X79.789 Y113.006 E7.01185
G1 X79.789 Y113.006 E7.01185
G1 X79.067 Y111.215 E7.06551
G1 X79.056 Y111.114 E7.06832
G1 X79.056 Y111.114 E7.06832
G1 X78.847 Y109.193 E7.12199
G1 X79.178 Y107.189 E7.17843
G1 X79.701 Y106.070 E7.21272
G1 F1200.000 E4.21272
G1 Z1.000 F6000.000
G92 E0
G1 X93.555 Y95.565
G1 Z0.400
G1 F1200.000 E3.00000
G1 X93.407 Y95.321 F900.000 E3.00794
G1 X93.407 Y95.321 E3.00794
G1 X92.306 Y93.512 E3.06674
G1 X91.658 Y91.198 E3.13349
G1 X91.658 Y88.794 E3.20030
G1 X92.306 Y86.480 E3.26705
G1 X93.801 Y84.022 E3.34695
G1 X93.988 Y84.022 E3.35214
G1 X95.311 Y82.785 E3.40244
G1 X97.446 Y81.680 E3.46922
G1 X99.799 Y81.191 E3.53598
G1 X102.197 Y81.355 E3.60274
G1 X104.461 Y82.160 E3.66948
G1 X106.425 Y83.545 E3.73624
G1 X107.942 Y85.409 E3.80301
G1 X108.900 Y87.615 E3.86980
G1 X109.225 Y89.997 E3.93659
G1 X108.900 Y92.377 E4.00333
G1 X107.942 Y94.583 E4.07012
G1 X106.425 Y96.447 E4.13688
G1 X104.461 Y97.832 E4.20364
G1 X102.197 Y98.637 E4.27038
G1 X101.145 Y98.709 E4.29968
G1 X101.145 Y99.080 E4.31000
G1 X97.446 Y98.312 E4.41494
G1 X95.311 Y97.207 E4.48172
G1 X94.064 Y96.041 E4.52913
G1 X94.084 Y95.135 F6000.000
G1 X92.932 Y93.241 F900.000 E4.59072
G1 X92.334 Y91.106 E4.65231
G1 X92.334 Y88.886 E4.71396
G1 X92.932 Y86.751 E4.77555
G1 X94.181 Y84.697 E4.84232
G1 X94.255 Y84.697 E4.84436
G1 X95.704 Y83.343 E4.89947
G1 X97.674 Y82.323 E4.96109
G1 X99.845 Y81.872 E5.02270
G1 X102.058 Y82.023 E5.08430
G1 X104.147 Y82.765 E5.14589
G1 X105.959 Y84.043 E5.20749
G1 X107.359 Y85.764 E5.26909
G1 X108.243 Y87.798 E5.33072
G1 X108.543 Y89.997 E5.39236
G1 X108.243 Y92.194 E5.45394
G1 X107.359 Y94.228 E5.51556
G1 X105.959 Y95.949 E5.57717
G1 X104.147 Y97.227 E5.63877
G1 X102.058 Y97.969 E5.70035
G1 X100.469 Y98.078 E5.74460
G1 X100.469 Y98.250 E5.74938
G1 X97.674 Y97.669 E5.82868
G1 X95.704 Y96.649 E5.89030
G1 X94.593 Y95.611 E5.93254
G1 X94.613 Y94.705 F6000.000
G1 X93.557 Y92.969 F900.000 E5.98897
G1 X93.010 Y91.013 E6.04540
G1 X93.010 Y88.979 E6.10190
G1 X93.557 Y87.023 E6.15833
G1 X94.561 Y85.373 E6.21196
G1 X94.561 Y85.373 E6.21197
G1 X94.613 Y85.287 E6.21476
G1 X96.097 Y83.900 E6.27119
G1 X97.902 Y82.966 E6.32765
G1 X99.892 Y82.552 E6.38410
G1 X101.920 Y82.691 E6.44055
G1 X103.834 Y83.371 E6.49698
G1 X105.494 Y84.542 E6.55342
G1 X106.776 Y86.118 E6.60986
G1 X107.587 Y87.982 E6.66632
